X: 3008
M: 3/4
L: 1/8
K: Bb
(GB) (cd) cB | G3 gfd | B3 d (fdcB) | (cd) F2 F2 |\
(GB) (B/c/d) cB | f3 gfd | f3 gbd | c4 :|
|: g2 |\
f2 (ga) (be) | d3 d g2 | (cd) (ed) cB | (f3 g) F2 |\
(BA2) FDB, | (dc3) (bg) | (fd) (Bd) cB | B4 |]


